assets/icons/qvision/highlight.svg

<svg xmlns="http://www.w3.org/2000/svg" enable-background="new 0 0 24 24" height="24" viewBox="0 0 24 24" width="24"><g><rect fill="none" height="24" width="24"/></g><g><g><g><path d="M6,14l3,3v5h6v-5l3-3V9H6V14z M11,2h2v3h-2V2z M3.5,5.88l1.41-1.41l2.12,2.12L5.62,8L3.5,5.88z M16.96,6.59l2.12-2.12 l1.41,1.41L18.38,8L16.96,6.59z"/></g></g></g></svg>

<svg width="24" height="24" viewBox="0 0 24 24" fill="none" xmlns="http://www.w3.org/2000/svg">
<g clip-path="url(#clip0_147_2654)">
<path d="M6 14L9 17V22H15V17L18 14V9H6V14ZM11 2H13V5H11V2ZM3.5 5.88L4.91 4.47L7.03 6.59L5.62 8L3.5 5.88ZM16.96 6.59L19.08 4.47L20.49 5.88L18.38 8L16.96 6.59Z" fill="#323232"/>
</g>
<defs>
<clipPath id="clip0_147_2654">
<rect width="24" height="24" fill="white"/>
</clipPath>
</defs>
</svg>
